!!!!SEGMENT: pl-wtm--r-1427--001_stefani-jozef-no-19-kyrie.krn
!!!id: 18xx:2437
!!!COM: Stefani, Józef
!!!OTL: No. 19 – Kyrie
!!!PDT:
!!!SMS-siglum: PL-Wtm
!!!SMS-shelfmark: R 1427
!!!NIFC-rismID: 1001116126
!!!URL-scan: http://repozytorium.nifc.pl/skany/pl-wtm-nut--r1427--r1428
!!!ONB-nifc: UWAGA: części Mszy: 1. Kyrie, 2. Gloria, 3. Graduale, 4. Credo, 5. Offertorium.
!!!SMS-variant:
!!!SMS-altvar:
!!!OMD: Andantino.
**kern	**kern	**kern	**text	**text	**text
*part3	*part2	*part1	*part1	*part1	*part1
*staff3	*staff2	*staff1	*staff1	*staff1	*staff1
*I"Organy	*I"Organy	*I"Głos	*	*	*
*>[A,A,A,B]	*>[A,A,A,B]	*>[A,A,A,B]	*>[A,A,A,B]	*>[A,A,A,B]	*>[A,A,A,B]
*>A	*>A	*>A	*>A	*>A	*>A
*clefF4	*clefG2	*clefG2	*	*	*
*k[b-]	*k[b-]	*k[b-]	*	*	*
*M4/4	*M4/4	*M4/4	*	*	*
*met(c)	*met(c)	*met(c)	*	*	*
*all\right	*all\right	*all\right	*	*	*
!	!LO:TX:t=[segno]	!LO:TX:t=[segno]	!	!	!
4r	4cc\	4r	.	.	.
=1	=1	=1	=1	=1	=1
4FF/	4ff 4a\	1r	.	.	.
4F\	4ee 4cc\	.	.	.	.
4FF/	4dd 4b-\	.	.	.	.
4F\	4cc 4a\	.	.	.	.
=2	=2	=2	=2	=2	=2
4FF/	2cc 2a/	1r	.	.	.
4F\	.	.	.	.	.
4FF/	4a 4f/	.	.	.	.
[4F\	4a 4f/	.	.	.	.
=3	=3	=3	=3	=3	=3
4F\]	2.b- 2.g/	1r	.	.	.
8E\L	.	.	.	.	.
8D\J	.	.	.	.	.
*2\right	*	*	*	*	*
2E\	.	.	.	.	.
.	4cc 4g 4c/	.	.	.	.
=4	=4	=4	=4	=4	=4
2F\	2a 2f [2c/	1r	.	.	.
4C/	4g 4e 4c/]	.	.	.	.
4r	4ccT\	.	.	.	.
.	(16qqbn/LL	.	.	.	.
.	16qqcc/JJ)	.	.	.	.
!!LO:LB:g=original
=5	=5	=5	=5	=5	=5
*	*^	*	*	*	*
4D\	4ff 4a 4f/	2ryy	1r	.	.	.
4AA/	4ee 4cc#X 4g/	.	.	.	.	.
*	*	*2\right	*	*	*	*
4BB-/	4dd/	2f\	.	.	.	.
!	!LO:SIC:v:n=1:s=4ccn	!	!	!	!	!
4C/	4cc# 4a/	.	.	.	.	.
=6	=6	=6	=6	=6	=6	=6
2D\	2bn/	2.g\	1r	.	.	.
4E\	4cc/	.	.	.	.	.
4F\	4dd 4cc 4a/	4ryy	.	.	.	.
=7	=7	=7	=7	=7	=7	=7
4G\	2ee 2cc/	1g	1r	.	.	.
4GG/	.	.	.	.	.	.
4G\	4dd 4cc/	.	.	.	.	.
4GG/	4gg 4bn/	.	.	.	.	.
*	*v	*v	*	*	*	*
=8	=8	=8	=8	=8	=8
4C\	4cc/	2r	.	.	.
8G\L	8g/L	.	.	.	.
8E\J	8e/J	.	.	.	.
4C\	4c/	4r	.	.	.
4F\	4c< 4A</	4cc\	1.) Z od-	2.) Ze-	3.) Spraw
!!LO:LB:g=original
=9	=9	=9	=9	=9	=9
4FF/	4d< 4B-</	4dd\	-gło-	-bra-	Bo-
4F\	4c< 4A</	4cc\	-sem	-ni	-że
4FF/	4d< 4B-</	4dd\	wdzię-	dziś	bys-
4F\	4e 4B-< 4G</	4ee\	-cznych	po	-my
=10	=10	=10	=10	=10	=10
*	*	*2\right	*	*	*
4FF/	2f 2A</	2ff\	pie-	spo-	zgo-
4F\	.	.	.	.	.
4FF/	4c 4F</	4cc\	-ni	-łu	-dni
4F\	4f 4A</	4ff\	Ku	Skłą-	Jak
=11	=11	=11	=11	=11	=11
4CC/	4e 4c/	4ee\	To-	-da-	bra-
4C/	4d 4B-/	4dd\	-bie	-my	-cia
4CC/	4c 4A</	4cc\	się	Ci	wiecz-
4C\	4B- 4G</	4b-\	wzno-	o-	-nie
!!LO:LB:g=original
=12	=12	=12	=12	=12	=12
8qCC/	.	.	.	.	.
4C\	2B-< 2G</	2b-\	-sie-	-fia-	ży-
4C#X\	.	.	.	.	.
4D\	4A< 4F</	4a/	-my	-ry	-li
4D\	4A< 4F</	4a/	Przez	Z ie-	O-
=13	=13	=13	=13	=13	=13
*	*^	*	*	*	*
2.C#X\	2e 2A</	2ryy	2ee\	Cie-	-dne-	-fia-
.	4A< 4E</	4ryy	4a/	-bie	-go	-ry
8DL 8DD\	8f/L	4A</	8ff\	wy-	Oj-	Two-
8FJ 8FF\	8d/J	.	8dd\	-ba-	-ca	-iej
=14	=14	=14	=14	=14	=14	=14
2GG\	2Bn/	4G</	2bn\	-wie-	sto-	go-
.	.	4F</	.	.	.	.
4C\	4c 4E</	2ryy	4cc\	-ni	-łu	-dni
4C\	4c 4E</	.	4cc\	Twój	Je-	Na-
!!LO:PB:g=original
=15	=15	=15	=15	=15	=15	=15
4BB-\	4d/	2.F</	4dd\	Chri-	-dna-	-u-
4AA\	4c/	.	4cc\	-ste	-kie	-ki
4BB-\	4d/	.	4dd\	zgon	bie-	Twe
4GG\	4e 4B-</	4ryy	4ee\	świę-	-rzem	peł-
*	*v	*v	*	*	*	*
=16	=16	=16	=16	=16	=16
2FF\	2f 2A</	2ff\	-ci-	da-	-ni-
4BB-\	4d 4B-</	4dd\	-my	-ry	-li
4BBn\	4d 4A-X</	4dd\	Twój	Je-	Na-
=17	=17	=17	=17	=17	=17
4C\	4c 4An</	4cc\	Chri-	-dna-	-u-
4CC/	4A< 4F</	4a/	-ste	-kie	-ki
4C\	4G< 4F</	4g/	zgon	bie-	Twe
4CC/	4c< 4E</	4cc\	świę-	-rzem	peł-
!!LO:LB:g=original
=18	=18	=18	=18	=18	=18
2.FF\	2.F</	2f/	-cie-	da-	-ni-
!	!LO:TX:t=[segno]	!LO:TX:t=[segno]	!	!	!
.	.	4f/	-my.	-ry.	-li.
*>B	*>B	*>B	*>B	*>B	*>B
4F\	4cc 4a\	4r	.	.	.
=19	=19	=19	=19	=19	=19
4FF/	4dd 4b-\	1r	.	.	.
4F\	4cc 4a\	.	.	.	.
4FF/	4dd 4b-\	.	.	.	.
4F\	4ee 4b- 4g\	.	.	.	.
=20	=20	=20	=20	=20	=20
4FF/	2ff 2a 2f\	1r	.	.	.
4F\	.	.	.	.	.
4BB-/	4dd 4b- 4f/	.	.	.	.
4BBn/	4dd 4a-X 4f/	.	.	.	.
!!LO:LB:g=original
=21	=21	=21	=21	=21	=21
4C/	4cc 4an 4f/	1r	.	.	.
4CC/	4a 4f/	.	.	.	.
2C/	4g 4f/	.	.	.	.
.	4cc 4e/	.	.	.	.
=22	=22	=22	=22	=22	=22
!LO:TX:a:i:t=Seque Gloria	!	!	!	!	!
2.F\	2.f/	2r	.	.	.
.	.	4r	.	.	.
==	==	==	==	==	==
*-	*-	*-	*-	*-	*-
!!!system-decoration: s1{(s2,s3)}
!!!RDF**kern: < = below
!!!ENC: Marcin Jachim
!!!END: 2021-06-19
!!!ENC: Marta Lawrence
!!!END: 2021-06-26
